X: 19188
T: Isabela Blackley
R: jig
M: 6/8
K: Amajor
B|cee ega|dff fed|cee ega|dBB BAB|
cee ega|dff fed|cee fed|cAA A2:|
|:c|d2f afd|cee =gec|dff afd|ecA A2c|
d2f afd|Bdd =GAB|cee fed|cAA A2:|
|:c|dff Bff|dff Bff|cee Ace|aga ecA|
dff cee|Bdd =GAB|cee fed|cAA A2:|
|:A|eaa ef=g|fed cde|Bdd =GBd|=gfg ecA|
eaa ef=g|fed cee|Bee fed|cAA A2:|

